X: 20271
U: p=!crescendo(!
U: P=!crescendo)!
U: Q=!diminuendo(!
U: q=!diminuendo)!
M: 3/4
L: 1/8
K: Bb
!p!F2 |\
p.F2.F2P.F2 | .F2Q.F2.F2q | .F6 | B2z2F2 |\
p.F2.F2P.F2 | .F2Q.F2.F2q | .F6 | c2z2F2 |\
.d2.d2.d2 | (e2c2)A2 | .B2.B2.B2 | (B2A2)G2 |\
|: A2 |\
(BA)(BA)(BA) | (BA)(BA)(Bc) | d4B2 | (F4f2) |\
(e4c2) | (BAGFGA) | B2(B2d2) | B2z2 :: (Bd) |\
(f=efgab) | B4(dB) | (ABcdef) | (e2d2)(Bd) |
(f=efgab) | B4dB | (FGABcd) | B4 :: D2 |\
d2d>dd2 | d4c2 | B2A2G2 | (^F2A2)D2 |\
d2d>dd2 | d4c2 | B2A2G2 | d4(Bd) |\
(f=efgab) | B4dB |
(ABcdef) | (e2d2)(Bd) |\
(f=efgab) | B4dB | (FGABcd) | B4 :: F2 |\
(d2B2).F2 | (B2F2).D2 | (E2c2).A2 | (B2d2).F2 |
(d2B2).F2 | (B2F2).D2 | (E2c2).A2 | B4 :: c2 |\
(c2B2).A2 | (A2G2).F2 | (BA)B2d2 | d4B2 |\
(c2B2).A2 | (A2G2).F2 | (Bc)d2c2 | B4 :|


